X:1
T:60 Lessons for 2 Guitars, Op.168 - Joseph Küffner (1776 - 1856)
T:Leçon No.46
T:60 Lessons for 2 Guitars, Op.168 "à l'usage des commençants"
T:Joseph Küffner (1776 - 1856)
%%score { ( 1 2 ) ( 3 4 ) }
L:1/8
Q:1/4=120
M:3/4
K:A
V:1 treble-8 nm="Classical Guitar"
V:2 treble-8 
V:3 treble-8 nm="Guitare classique"
V:4 treble-8 
V:1
"_""^Ländler"{/f} (ed) | ceacea | !>![ec']4 [db]2 | BdgBdg | !>![db]4 [ca]2 | ceacea | %6
 !>![ec']4 [db]2 | BdgBdg | A,2 [cea]2 ::"_" (cB) | ABfABf | GBeGBe | Af Ge F^d | %13
 !arpeggio![EGBe]3!<(! (fe)=d!<)! |"_" ceacea | !>![ec']4 [db]2 | BdgBdg | A,2 [cea]2 :| %18
V:2
 z2 | A,4 z2 | E,4 z2 | E,4 z2 | A,4 z2 | A,4 z2 | E,4 z2 | E,4 z2 | x4 :: z2 | B,4 z2 | E,4 z2 | %12
 x6 | x6 | A,4 z2 | E,4 z2 | E,4 z2 | x4 :| %18
V:3
 z2 |"_" z2 [Ace]2 [Ace]2 | z2 [Gde]2 [Gde]2 | z2 [Gde]2 [Gde]2 | z2 [Ace]2 [Ace]2 | %5
 z2 [Ace]2 [Ace]2 | z2 [Gde]2 [Gde]2 | z2 [Gde]2 [Gde]2 | A,2 [Ace]2 :: z2 |"_" A2 B2 A2 | %11
 G2 B2 G2 | A,2 [B,G]2 [B,A]2 | [E,G]3 z z2 |"_" z2 [Ace]2 [Ace]2 | z2 [Gde]2 [Gde]2 | %16
 z2 [Gde]2 [Gde]2 | A,2 [Ace]2 :| %18
V:4
 x2 | A,6 | E,6 | E,6 | A,6 | A,6 | E,6 | E,6 | x4 :: x2 | ^D4 D2 | E4 E2 | x6 | x6 | A,6 | E,6 | %16
 E,6 | x4 :| %18

